packages/react/src/components/base/Icon/assets/icon-scooter.svg

<svg width="24" height="24" viewBox="0 0 24 24" xmlns="http://www.w3.org/2000/svg" fill="currentColor"> <g clip-path="url(#clip0_2076_2400)"> <path d="M19.8708 13.125H19.8071L16.8127 4.14469C16.7381 3.92067 16.595 3.72579 16.4035 3.58765C16.212 3.44951 15.9819 3.37511 15.7458 3.375H12.7458C12.4475 3.375 12.1613 3.49353 11.9503 3.7045C11.7394 3.91548 11.6208 4.20163 11.6208 4.5C11.6208 4.79837 11.7394 5.08452 11.9503 5.2955C12.1613 5.50647 12.4475 5.625 12.7458 5.625H14.9349L16.3252 9.79594L10.7386 16.125H7.79583C7.61742 15.2476 7.13095 14.463 6.42438 13.913C5.71782 13.3631 4.8378 13.0841 3.94344 13.1265C3.04907 13.1689 2.1994 13.5299 1.54804 14.1442C0.89668 14.7586 0.48663 15.5857 0.392029 16.476C0.297429 17.3664 0.524522 18.2612 1.03225 18.9987C1.53997 19.7362 2.29482 20.2677 3.16031 20.4971C4.02579 20.7265 4.94479 20.6386 5.75114 20.2494C6.55749 19.8602 7.19797 19.1953 7.55677 18.375H11.2458C11.4054 18.375 11.5632 18.3411 11.7087 18.2755C11.8541 18.2099 11.984 18.114 12.0896 17.9944L17.1521 12.2634L17.6771 13.8394C16.9539 14.3639 16.4417 15.1293 16.2328 15.9979C16.0239 16.8665 16.1319 17.7812 16.5374 18.5772C16.9429 19.3732 17.6193 19.9983 18.4447 20.3399C19.2702 20.6816 20.1905 20.7173 21.0399 20.4407C21.8894 20.1641 22.6122 19.5933 23.0782 18.8311C23.5442 18.0689 23.7228 17.1654 23.5818 16.2832C23.4408 15.4011 22.9896 14.5982 22.3092 14.0192C21.6289 13.4402 20.7642 13.1231 19.8708 13.125ZM4.12083 18.375C3.82416 18.375 3.53415 18.287 3.28748 18.1222C3.04081 17.9574 2.84855 17.7231 2.73501 17.449C2.62148 17.1749 2.59178 16.8733 2.64966 16.5824C2.70753 16.2914 2.8504 16.0241 3.06017 15.8143C3.26995 15.6046 3.53723 15.4617 3.8282 15.4038C4.11917 15.3459 4.42077 15.3756 4.69486 15.4892C4.96895 15.6027 5.20322 15.795 5.36804 16.0416C5.53286 16.2883 5.62083 16.5783 5.62083 16.875C5.62083 17.2728 5.4628 17.6544 5.18149 17.9357C4.90019 18.217 4.51866 18.375 4.12083 18.375ZM19.8708 18.375C19.5742 18.375 19.2842 18.287 19.0375 18.1222C18.7908 17.9574 18.5985 17.7231 18.485 17.449C18.3715 17.1749 18.3418 16.8733 18.3997 16.5824C18.4575 16.2914 18.6004 16.0241 18.8102 15.8143C19.02 15.6046 19.2872 15.4617 19.5782 15.4038C19.8692 15.3459 20.1708 15.3756 20.4449 15.4892C20.7189 15.6027 20.9532 15.795 21.118 16.0416C21.2829 16.2883 21.3708 16.5783 21.3708 16.875C21.3708 17.2728 21.2128 17.6544 20.9315 17.9357C20.6502 18.217 20.2687 18.375 19.8708 18.375Z"/> </g> <defs> <clipPath id="clip0_2076_2400"> <rect width="24" height="24"/> </clipPath> </defs> </svg>

<svg viewBox="0 0 24 24" xmlns="http://www.w3.org/2000/svg" aria-hidden="true" fill="currentColor"><g clip-path="url(#a)"><path d="M19.87 13.125h-.063l-2.994-8.98a1.125 1.125 0 0 0-1.067-.77h-3a1.125 1.125 0 0 0 0 2.25h2.189l1.39 4.17-5.586 6.33H7.796a3.75 3.75 0 1 0-.24 2.25h3.69a1.13 1.13 0 0 0 .844-.38l5.062-5.732.525 1.576a3.75 3.75 0 1 0 2.194-.714m-15.75 5.25a1.5 1.5 0 1 1 .001-3 1.5 1.5 0 0 1 0 3m15.75 0a1.5 1.5 0 1 1 .001-3 1.5 1.5 0 0 1 0 3"/></g><defs><clipPath id="a"><path d="M0 0h24v24H0z"/></clipPath></defs></svg>
